static/img/in-field/checkbox-label-left.svg

<svg fill="none" height="56" viewBox="0 0 123 56" width="123" xmlns="http://www.w3.org/2000/svg" xmlns:xlink="http://www.w3.org/1999/xlink"><clipPath id="a"><path d="m10 14h57v28h-57z"/></clipPath><g clip-path="url(#a)"><path d="m13.0732 37v-15.7051h1.8262v14.0508h6.9287v1.6543zm18.6514 0-.3545-1.6758h-.0859c-.5873.7376-1.1745 1.239-1.7617 1.5039-.5801.2578-1.307.3867-2.1807.3867-1.1673 0-2.084-.3007-2.75-.9023-.6589-.6016-.9883-1.4574-.9883-2.5674 0-2.3776 1.9014-3.6237 5.7041-3.7383l1.9981-.0644v-.7305c0-.9238-.2006-1.6042-.6016-2.041-.3939-.444-1.0277-.666-1.9014-.666-.9811 0-2.0911.3008-3.33.9023l-.5479-1.3642c.5801-.3151 1.2139-.5622 1.9014-.7412.6946-.1791 1.3893-.2686 2.084-.2686 1.4036 0 2.442.3115 3.1152.9346.6803.623 1.0205 1.622 1.0205 2.997v8.0352zm-4.0283-1.2568c1.11 0 1.9801-.3044 2.6103-.9131.6374-.6087.9561-1.461.9561-2.5567v-1.0634l-1.7832.0752c-1.418.0501-2.4421.2721-3.0723.666-.623.3867-.9345.9918-.9345 1.8154 0 .6445.1933 1.1351.58 1.4717.3939.3366.9418.5049 1.6436.5049zm14.7627-10.71c1.5469 0 2.7464.53 3.5986 1.5898.8594 1.0528 1.2891 2.5459 1.2891 4.4795s-.4333 3.4375-1.2998 4.5118c-.8594 1.067-2.0554 1.6005-3.5879 1.6005-.7663 0-1.4681-.1396-2.1055-.4189-.6302-.2865-1.1601-.7233-1.5898-1.3105h-.1289l-.376 1.5146h-1.2783v-16.7148h1.7832v4.0605c0 .9095-.0287 1.7259-.086 2.4492h.086c.8307-1.1745 2.0625-1.7617 3.6953-1.7617zm-.2578 1.4932c-1.2175 0-2.0948.3509-2.6319 1.0527-.5371.6947-.8056 1.8691-.8056 3.5234s.2757 2.8396.8271 3.5557c.5515.709 1.4359 1.0635 2.6533 1.0635 1.0957 0 1.9121-.3975 2.4493-1.1924.5371-.8021.8056-1.9515.8056-3.4482 0-1.5326-.2685-2.6749-.8056-3.4268-.5372-.752-1.3679-1.1279-2.4922-1.1279zm13.4951 10.6884c-1.7402 0-3.1152-.5299-4.125-1.5898-1.0026-1.0599-1.5039-2.5316-1.5039-4.415 0-1.8978.4655-3.4053 1.3965-4.5225.9381-1.1172 2.195-1.6758 3.7705-1.6758 1.4752 0 2.6426.487 3.5019 1.461.8594.9668 1.2891 2.2451 1.2891 3.8349v1.1279h-8.1104c.0358 1.3822.3832 2.4314 1.042 3.1475.666.7162 1.6006 1.0742 2.8037 1.0742 1.2676 0 2.5209-.2649 3.7598-.7949v1.5898c-.6302.2722-1.2282.4655-1.7939.5801-.5586.1218-1.2354.1826-2.0303.1826zm-.4834-10.7099c-.9453 0-1.7009.3079-2.2666.9238-.5586.6159-.888 1.4681-.9883 2.5567h6.1553c0-1.1244-.2507-1.9838-.752-2.5782-.5013-.6015-1.2174-.9023-2.1484-.9023zm9.8965 10.4951h-1.7832v-16.7148h1.7832z" fill="#252a2e"/></g><g clip-rule="evenodd" fill-rule="evenodd"><path d="m85.6667 16h18.6663c1.48 0 2.667 1.2 2.667 2.6667v18.6666c0 1.4667-1.187 2.6667-2.667 2.6667h-18.6663c-1.48 0-2.6667-1.2-2.6667-2.6667v-18.6666c0-1.4667 1.1867-2.6667 2.6667-2.6667zm0 12 6.6666 6.6667 11.9997-12-1.88-1.8934-10.1197 10.12-4.7866-4.7733z" fill="#0063a3"/><path d="m85.6667 28 6.6666 6.6667 11.9997-12-1.88-1.8934-10.1197 10.12-4.7866-4.7733z" fill="#fff"/></g></svg>

<svg width="123" height="56" viewBox="0 0 123 56" fill="none" xmlns="http://www.w3.org/2000/svg"><g clip-path="url(#clip0_7258_87449)"><path d="M13.0732 37V21.2949H14.8994V35.3457H21.8281V37H13.0732ZM31.7246 37L31.3701 35.3242H31.2842C30.6969 36.0618 30.1097 36.5632 29.5225 36.8281C28.9424 37.0859 28.2155 37.2148 27.3418 37.2148C26.1745 37.2148 25.2578 36.9141 24.5918 36.3125C23.9329 35.7109 23.6035 34.8551 23.6035 33.7451C23.6035 31.3675 25.5049 30.1214 29.3076 30.0068L31.3057 29.9424V29.2119C31.3057 28.2881 31.1051 27.6077 30.7041 27.1709C30.3102 26.7269 29.6764 26.5049 28.8027 26.5049C27.8216 26.5049 26.7116 26.8057 25.4727 27.4072L24.9248 26.043C25.5049 25.7279 26.1387 25.4808 26.8262 25.3018C27.5208 25.1227 28.2155 25.0332 28.9102 25.0332C30.3138 25.0332 31.3522 25.3447 32.0254 25.9678C32.7057 26.5908 33.0459 27.5898 33.0459 28.9648V37H31.7246ZM27.6963 35.7432C28.8063 35.7432 29.6764 35.4388 30.3066 34.8301C30.944 34.2214 31.2627 33.3691 31.2627 32.2734V31.21L29.4795 31.2852C28.0615 31.3353 27.0374 31.5573 26.4072 31.9512C25.7842 32.3379 25.4727 32.943 25.4727 33.7666C25.4727 34.4111 25.666 34.9017 26.0527 35.2383C26.4466 35.5749 26.9945 35.7432 27.6963 35.7432ZM42.459 25.0332C44.0059 25.0332 45.2054 25.5632 46.0576 26.623C46.917 27.6758 47.3467 29.1689 47.3467 31.1025C47.3467 33.0361 46.9134 34.54 46.0469 35.6143C45.1875 36.6813 43.9915 37.2148 42.459 37.2148C41.6927 37.2148 40.9909 37.0752 40.3535 36.7959C39.7233 36.5094 39.1934 36.0726 38.7637 35.4854H38.6348L38.2588 37H36.9805V20.2852H38.7637V24.3457C38.7637 25.2552 38.735 26.0716 38.6777 26.7949H38.7637C39.5944 25.6204 40.8262 25.0332 42.459 25.0332ZM42.2012 26.5264C40.9837 26.5264 40.1064 26.8773 39.5693 27.5791C39.0322 28.2738 38.7637 29.4482 38.7637 31.1025C38.7637 32.7568 39.0394 33.9421 39.5908 34.6582C40.1423 35.3672 41.0267 35.7217 42.2441 35.7217C43.3398 35.7217 44.1562 35.3242 44.6934 34.5293C45.2305 33.7272 45.499 32.5778 45.499 31.0811C45.499 29.5485 45.2305 28.4062 44.6934 27.6543C44.1562 26.9023 43.3255 26.5264 42.2012 26.5264ZM55.6963 37.2148C53.9561 37.2148 52.5811 36.6849 51.5713 35.625C50.5687 34.5651 50.0674 33.0934 50.0674 31.21C50.0674 29.3122 50.5329 27.8047 51.4639 26.6875C52.402 25.5703 53.6589 25.0117 55.2344 25.0117C56.7096 25.0117 57.877 25.4987 58.7363 26.4727C59.5957 27.4395 60.0254 28.7178 60.0254 30.3076V31.4355H51.915C51.9508 32.8177 52.2982 33.8669 52.957 34.583C53.623 35.2992 54.5576 35.6572 55.7607 35.6572C57.0283 35.6572 58.2816 35.3923 59.5205 34.8623V36.4521C58.8903 36.7243 58.2923 36.9176 57.7266 37.0322C57.168 37.154 56.4912 37.2148 55.6963 37.2148ZM55.2129 26.5049C54.2676 26.5049 53.512 26.8128 52.9463 27.4287C52.3877 28.0446 52.0583 28.8968 51.958 29.9854H58.1133C58.1133 28.861 57.8626 28.0016 57.3613 27.4072C56.86 26.8057 56.1439 26.5049 55.2129 26.5049ZM65.1094 37H63.3262V20.2852H65.1094V37Z" fill="#252A2E"/></g><path fill-rule="evenodd" clip-rule="evenodd" d="M85.6667 16H104.333C105.813 16 107 17.2 107 18.6667V37.3333C107 38.8 105.813 40 104.333 40H85.6667C84.1867 40 83 38.8 83 37.3333V18.6667C83 17.2 84.1867 16 85.6667 16ZM85.6667 28L92.3333 34.6667L104.333 22.6667L102.453 20.7733L92.3333 30.8933L87.5467 26.12L85.6667 28Z" fill="#0063A3"/><path fill-rule="evenodd" clip-rule="evenodd" d="M85.6667 28L92.3333 34.6667L104.333 22.6667L102.453 20.7733L92.3333 30.8933L87.5467 26.12L85.6667 28Z" fill="#fff"/><defs><clipPath id="clip0_7258_87449"><rect width="57" height="28" fill="#fff" transform="translate(10 14)"/></clipPath></defs></svg>
